X: 1
T:Johnie's Grey Breeks.
M:2/4
L:1/16
K:EMin
GA|B2B2 (cB)(AG)| {F}E4  G3D |B,2A,G, G,3A, |B,2D2D2 GA|\
   B2B2  dBAG   | {F}E4  G3D |B,2A,G, G,3A, |G2E2E2   ::
G2|D3E   G3A    |({GA}B4) A2G2|A2B2    d2(ed)|B2A2A2  Bd|
[1 e2e2  gedB   | d2d2    edBA|G3e     dBAB  |G2E2E2   :|\
[2 e2ge  d2ed   | B2dB    AcBA|G3e     dBAB  |G2E2E2   |]
